svg/color/albt.svg

<?xml version="1.0" encoding="UTF-8" ?>
<!DOCTYPE svg PUBLIC "-//W3C//DTD SVG 1.1//EN" "http://www.w3.org/Graphics/SVG/1.1/DTD/svg11.dtd">
<svg width="250pt" height="250pt" viewBox="0 0 250 250" version="1.1" xmlns="http://www.w3.org/2000/svg">
<g id="#fefffeff">
<path fill="#fefffe" opacity="1.00" d=" M 0.00 0.00 L 250.00 0.00 L 250.00 250.00 L 0.00 250.00 L 0.00 0.00 M 135.91 8.39 C 150.51 33.14 165.08 57.90 179.59 82.70 C 183.37 82.29 186.94 83.71 189.76 86.17 C 203.47 78.65 217.16 71.07 230.83 63.46 C 224.66 59.08 217.70 55.87 211.28 51.85 C 186.13 37.41 161.11 22.76 135.91 8.39 M 103.56 14.59 C 75.42 30.82 47.31 47.10 19.17 63.34 C 32.83 70.85 46.47 78.43 60.12 85.95 C 63.58 83.84 67.41 82.33 71.53 83.45 C 85.60 58.55 99.90 33.79 114.09 8.96 C 110.36 10.41 107.00 12.60 103.56 14.59 M 130.81 118.67 C 144.75 111.20 158.50 103.36 172.40 95.80 C 172.00 92.27 172.70 88.73 174.95 85.92 C 160.36 60.84 145.65 35.83 130.81 10.91 C 130.84 46.83 130.84 82.75 130.81 118.67 M 75.93 87.19 C 77.13 89.88 77.86 92.76 77.77 95.72 C 91.63 103.39 105.53 110.98 119.36 118.70 C 119.35 82.87 119.40 47.05 119.34 11.22 C 104.83 36.52 90.15 61.73 75.93 87.19 M 192.31 91.13 C 192.59 94.39 191.72 97.56 189.62 100.09 C 204.24 126.49 219.11 152.75 233.62 179.21 C 233.89 169.48 233.65 159.75 233.73 150.01 C 233.61 122.75 234.00 95.47 233.53 68.22 C 219.95 76.12 206.08 83.56 192.31 91.13 M 16.57 68.18 C 16.55 105.18 16.46 142.18 16.61 179.18 C 31.70 153.17 46.42 126.95 61.48 100.93 C 58.55 98.38 57.43 94.67 57.60 90.87 C 43.84 83.46 30.15 75.91 16.57 68.18 M 70.65 102.90 C 70.72 117.87 70.60 132.84 70.69 147.82 C 71.86 148.53 73.01 149.27 74.16 150.01 C 89.24 141.73 104.33 133.48 119.31 125.03 C 104.54 116.93 89.79 108.79 75.10 100.54 C 73.62 101.35 72.14 102.13 70.65 102.90 M 174.27 101.15 C 159.80 109.10 145.41 117.20 130.90 125.09 C 145.90 133.26 160.78 141.65 175.78 149.83 C 177.03 148.96 178.30 148.13 179.58 147.30 C 179.43 132.23 179.63 117.16 179.48 102.09 C 177.80 101.71 175.98 99.92 174.27 101.15 M 185.35 103.80 C 185.19 118.36 185.27 132.93 185.27 147.50 C 189.74 149.60 192.34 154.15 192.45 159.03 C 203.39 165.11 214.36 171.13 225.31 177.20 C 225.47 177.66 225.78 178.58 225.93 179.04 C 225.71 177.68 225.67 176.23 224.94 175.02 C 211.77 151.26 198.42 127.61 185.35 103.80 M 24.11 177.70 C 35.24 171.59 46.31 165.36 57.47 159.30 C 57.90 156.93 58.10 154.41 59.39 152.30 C 60.84 150.16 63.13 148.82 65.19 147.36 C 65.06 133.57 65.21 119.78 65.12 106.00 C 51.31 129.82 37.60 153.70 24.11 177.70 M 77.36 154.67 C 77.94 157.98 77.77 161.40 75.78 164.23 C 90.09 187.82 104.73 211.22 119.32 234.63 C 119.41 200.21 119.35 165.79 119.35 131.36 C 105.48 139.35 91.38 146.94 77.36 154.67 M 130.79 131.36 C 130.91 166.78 130.73 202.19 130.88 237.61 C 145.61 213.16 160.30 188.69 174.79 164.10 C 172.49 161.26 172.01 157.68 172.34 154.15 C 158.31 146.89 144.66 138.91 130.79 131.36 M 21.11 185.63 C 21.27 185.96 21.59 186.61 21.75 186.94 C 35.18 194.09 48.16 202.10 61.40 209.60 C 79.99 220.11 98.24 231.22 116.96 241.50 C 101.62 216.92 86.44 192.22 71.14 167.61 C 67.15 167.59 63.26 166.76 60.00 164.32 C 47.01 171.38 34.15 178.68 21.11 185.63 M 179.87 166.78 C 165.25 191.17 150.55 215.53 136.16 240.06 C 167.39 222.09 198.53 203.95 229.79 186.03 C 216.51 178.82 203.36 171.37 190.04 164.22 C 187.22 166.57 183.50 167.75 179.87 166.78 Z" />
</g>
<g id="#045aa5ff">
<path fill="#045aa5" opacity="1.00" d=" M 135.91 8.39 C 161.11 22.76 186.13 37.41 211.28 51.85 C 217.70 55.87 224.66 59.08 230.83 63.46 C 217.16 71.07 203.47 78.65 189.76 86.17 C 186.94 83.71 183.37 82.29 179.59 82.70 C 165.08 57.90 150.51 33.14 135.91 8.39 Z" />
<path fill="#045aa5" opacity="1.00" d=" M 103.56 14.59 C 107.00 12.60 110.36 10.41 114.09 8.96 C 99.90 33.79 85.60 58.55 71.53 83.45 C 67.41 82.33 63.58 83.84 60.12 85.95 C 46.47 78.43 32.83 70.85 19.17 63.34 C 47.31 47.10 75.42 30.82 103.56 14.59 Z" />
<path fill="#045aa5" opacity="1.00" d=" M 130.81 118.67 C 130.84 82.75 130.84 46.83 130.81 10.91 C 145.65 35.83 160.36 60.84 174.95 85.92 C 172.70 88.73 172.00 92.27 172.40 95.80 C 158.50 103.36 144.75 111.20 130.81 118.67 Z" />
<path fill="#045aa5" opacity="1.00" d=" M 75.93 87.19 C 90.15 61.73 104.83 36.52 119.34 11.22 C 119.40 47.05 119.35 82.87 119.36 118.70 C 105.53 110.98 91.63 103.39 77.77 95.72 C 77.86 92.76 77.13 89.88 75.93 87.19 Z" />
<path fill="#045aa5" opacity="1.00" d=" M 192.31 91.13 C 206.08 83.56 219.95 76.12 233.53 68.22 C 234.00 95.47 233.61 122.75 233.73 150.01 C 233.65 159.75 233.89 169.48 233.62 179.21 C 219.11 152.75 204.24 126.49 189.62 100.09 C 191.72 97.56 192.59 94.39 192.31 91.13 Z" />
<path fill="#045aa5" opacity="1.00" d=" M 16.57 68.18 C 30.15 75.91 43.84 83.46 57.60 90.87 C 57.43 94.67 58.55 98.38 61.48 100.93 C 46.42 126.95 31.70 153.17 16.61 179.18 C 16.46 142.18 16.55 105.18 16.57 68.18 Z" />
<path fill="#045aa5" opacity="1.00" d=" M 70.65 102.90 C 72.14 102.13 73.62 101.35 75.10 100.54 C 89.79 108.79 104.54 116.93 119.31 125.03 C 104.33 133.48 89.24 141.73 74.16 150.01 C 73.01 149.27 71.86 148.53 70.69 147.82 C 70.60 132.84 70.72 117.87 70.65 102.90 Z" />
<path fill="#045aa5" opacity="1.00" d=" M 174.27 101.15 C 175.98 99.92 177.80 101.71 179.48 102.09 C 179.63 117.16 179.43 132.23 179.58 147.30 C 178.30 148.13 177.03 148.96 175.78 149.83 C 160.78 141.65 145.90 133.26 130.90 125.09 C 145.41 117.20 159.80 109.10 174.27 101.15 Z" />
<path fill="#045aa5" opacity="1.00" d=" M 185.35 103.80 C 198.42 127.61 211.77 151.26 224.94 175.02 C 225.67 176.23 225.71 177.68 225.93 179.04 C 225.78 178.58 225.47 177.66 225.31 177.20 C 214.36 171.13 203.39 165.11 192.45 159.03 C 192.34 154.15 189.74 149.60 185.27 147.50 C 185.27 132.93 185.19 118.36 185.35 103.80 Z" />
<path fill="#045aa5" opacity="1.00" d=" M 24.11 177.70 C 37.60 153.70 51.31 129.82 65.12 106.00 C 65.21 119.78 65.06 133.57 65.19 147.36 C 63.13 148.82 60.84 150.16 59.39 152.30 C 58.10 154.41 57.90 156.93 57.47 159.30 C 46.31 165.36 35.24 171.59 24.11 177.70 Z" />
<path fill="#045aa5" opacity="1.00" d=" M 77.36 154.67 C 91.38 146.94 105.48 139.35 119.35 131.36 C 119.35 165.79 119.41 200.21 119.32 234.63 C 104.73 211.22 90.09 187.82 75.78 164.23 C 77.77 161.40 77.94 157.98 77.36 154.67 Z" />
<path fill="#045aa5" opacity="1.00" d=" M 130.79 131.36 C 144.66 138.91 158.31 146.89 172.34 154.15 C 172.01 157.68 172.49 161.26 174.79 164.10 C 160.30 188.69 145.61 213.16 130.88 237.61 C 130.73 202.19 130.91 166.78 130.79 131.36 Z" />
<path fill="#045aa5" opacity="1.00" d=" M 21.11 185.63 C 34.15 178.68 47.01 171.38 60.00 164.32 C 63.26 166.76 67.15 167.59 71.14 167.61 C 86.44 192.22 101.62 216.92 116.96 241.50 C 98.24 231.22 79.99 220.11 61.40 209.60 C 48.16 202.10 35.18 194.09 21.75 186.94 C 21.59 186.61 21.27 185.96 21.11 185.63 Z" />
<path fill="#045aa5" opacity="1.00" d=" M 179.87 166.78 C 183.50 167.75 187.22 166.57 190.04 164.22 C 203.36 171.37 216.51 178.82 229.79 186.03 C 198.53 203.95 167.39 222.09 136.16 240.06 C 150.55 215.53 165.25 191.17 179.87 166.78 Z" />
</g>
</svg>

<?xml version="1.0" encoding="utf-8"?>
<!-- Generator: Adobe Illustrator 26.0.3, SVG Export Plug-In . SVG Version: 6.00 Build 0)  -->
<svg version="1.1" id="Layer_1" xmlns="http://www.w3.org/2000/svg" xmlns:xlink="http://www.w3.org/1999/xlink" x="0px" y="0px"
	 viewBox="0 0 250 250" style="enable-background:new 0 0 250 250;" xml:space="preserve">
<style type="text/css">
	.st0{fill:#045AA5;}
</style>
<g id="_x23_045aa5ff">
	<path class="st0" d="M135.9,8.4c25.2,14.4,50.2,29,75.4,43.5c6.4,4,13.4,7.2,19.6,11.6c-13.7,7.6-27.4,15.2-41.1,22.7
		c-2.8-2.5-6.4-3.9-10.2-3.5C165.1,57.9,150.5,33.1,135.9,8.4z"/>
	<path class="st0" d="M103.6,14.6c3.4-2,6.8-4.2,10.5-5.6C99.9,33.8,85.6,58.5,71.5,83.4c-4.1-1.1-7.9,0.4-11.4,2.5
		c-13.6-7.5-27.3-15.1-40.9-22.6C47.3,47.1,75.4,30.8,103.6,14.6z"/>
	<path class="st0" d="M130.8,118.7c0-35.9,0-71.8,0-107.8c14.8,24.9,29.6,49.9,44.1,75c-2.2,2.8-2.9,6.3-2.6,9.9
		C158.5,103.4,144.8,111.2,130.8,118.7z"/>
	<path class="st0" d="M75.9,87.2c14.2-25.5,28.9-50.7,43.4-76c0.1,35.8,0,71.7,0,107.5c-13.8-7.7-27.7-15.3-41.6-23
		C77.9,92.8,77.1,89.9,75.9,87.2z"/>
	<path class="st0" d="M192.3,91.1c13.8-7.6,27.6-15,41.2-22.9c0.5,27.2,0.1,54.5,0.2,81.8c-0.1,9.7,0.2,19.5-0.1,29.2
		c-14.5-26.5-29.4-52.7-44-79.1C191.7,97.6,192.6,94.4,192.3,91.1z"/>
	<path class="st0" d="M16.6,68.2c13.6,7.7,27.3,15.3,41,22.7c-0.2,3.8,1,7.5,3.9,10.1c-15.1,26-29.8,52.2-44.9,78.2
		C16.5,142.2,16.5,105.2,16.6,68.2z"/>
	<path class="st0" d="M70.7,102.9c1.5-0.8,3-1.6,4.4-2.4c14.7,8.2,29.4,16.4,44.2,24.5c-15,8.4-30.1,16.7-45.1,25
		c-1.2-0.7-2.3-1.5-3.5-2.2C70.6,132.8,70.7,117.9,70.7,102.9z"/>
	<path class="st0" d="M174.3,101.2c1.7-1.2,3.5,0.6,5.2,0.9c0.2,15.1-0.1,30.1,0.1,45.2c-1.3,0.8-2.6,1.7-3.8,2.5
		c-15-8.2-29.9-16.6-44.9-24.7C145.4,117.2,159.8,109.1,174.3,101.2z"/>
	<path class="st0" d="M185.4,103.8c13.1,23.8,26.4,47.5,39.6,71.2c0.7,1.2,0.8,2.7,1,4c-0.1-0.5-0.5-1.4-0.6-1.8
		c-10.9-6.1-21.9-12.1-32.9-18.2c-0.1-4.9-2.7-9.4-7.2-11.5C185.3,132.9,185.2,118.4,185.4,103.8z"/>
	<path class="st0" d="M24.1,177.7c13.5-24,27.2-47.9,41-71.7c0.1,13.8-0.1,27.6,0.1,41.4c-2.1,1.5-4.4,2.8-5.8,4.9
		c-1.3,2.1-1.5,4.6-1.9,7C46.3,165.4,35.2,171.6,24.1,177.7z"/>
	<path class="st0" d="M77.4,154.7c14-7.7,28.1-15.3,42-23.3c0,34.4,0.1,68.9,0,103.3c-14.6-23.4-29.2-46.8-43.5-70.4
		C77.8,161.4,77.9,158,77.4,154.7z"/>
	<path class="st0" d="M130.8,131.4c13.9,7.6,27.5,15.5,41.6,22.8c-0.3,3.5,0.2,7.1,2.4,10c-14.5,24.6-29.2,49.1-43.9,73.5
		C130.7,202.2,130.9,166.8,130.8,131.4z"/>
	<path class="st0" d="M21.1,185.6c13-7,25.9-14.2,38.9-21.3c3.3,2.4,7.2,3.3,11.1,3.3c15.3,24.6,30.5,49.3,45.8,73.9
		c-18.7-10.3-37-21.4-55.6-31.9c-13.2-7.5-26.2-15.5-39.7-22.7C21.6,186.6,21.3,186,21.1,185.6z"/>
	<path class="st0" d="M179.9,166.8c3.6,1,7.4-0.2,10.2-2.6c13.3,7.1,26.5,14.6,39.8,21.8c-31.3,17.9-62.4,36.1-93.6,54
		C150.6,215.5,165.2,191.2,179.9,166.8z"/>
</g>
</svg>
